packages/bezier-icons/icons/sorting.svg

<svg width="24" height="24" viewBox="0 0 24 24" fill="none" xmlns="http://www.w3.org/2000/svg">
<path fill-rule="evenodd" clip-rule="evenodd" d="M3.016 5.00009C3.016 5.55238 3.46372 6.00009 4.016 6.00009H20.016C20.5683 6.00009 21.016 5.55238 21.016 5.00009C21.016 4.44781 20.5683 4.00009 20.016 4.00009H4.016C3.46372 4.00009 3.016 4.44781 3.016 5.00009ZM3 12.0001C3 12.5524 3.44772 13.0001 4 13.0001H13C13.5523 13.0001 14 12.5524 14 12.0001C14 11.4478 13.5523 11.0001 13 11.0001H4C3.44771 11.0001 3 11.4478 3 12.0001ZM4.01599 20.0001C3.46371 20.0001 3.01599 19.5524 3.01599 19.0001C3.01599 18.4478 3.46371 18.0001 4.01599 18.0001H9.01599C9.56828 18.0001 10.016 18.4478 10.016 19.0001C10.016 19.5524 9.56828 20.0001 9.01599 20.0001H4.01599ZM19.0147 17.7924L21.5497 15.2574L22.9637 16.6714L19.0747 20.5604C18.7817 20.8534 18.3987 20.9994 18.0137 20.9994C17.6297 20.9994 17.2457 20.8534 16.9537 20.5604L13.0647 16.6714L14.4787 15.2574L17.0147 17.7944L17.0187 9.99939L19.0187 10.0004L19.0147 17.7924Z" fill="#313234"/>
</svg>

<svg xmlns="http://www.w3.org/2000/svg" width="24" height="24" fill="none" viewBox="0 0 24 24"><path fill="#313234" fill-rule="evenodd" d="M3.016 5a1 1 0 0 0 1 1h16a1 1 0 1 0 0-2h-16a1 1 0 0 0-1 1M3 12a1 1 0 0 0 1 1h9a1 1 0 1 0 0-2H4a1 1 0 0 0-1 1m1.016 8a1 1 0 1 1 0-2h5a1 1 0 1 1 0 2zm14.999-2.208 2.535-2.535 1.414 1.414-3.89 3.89a1.5 1.5 0 0 1-1.06.438c-.384 0-.768-.146-1.06-.439l-3.89-3.889 1.415-1.414 2.536 2.537.004-7.795 2 .001z" clip-rule="evenodd"/></svg>
